app/component-library/components/Icons/Icon/assets/eraser.svg

<svg width="24" height="24" viewBox="0 0 24 24" fill="none" xmlns="http://www.w3.org/2000/svg">
<path d="M21.3108 22H14.2708C13.8508 22 13.5208 21.66 13.5208 21.25C13.5208 20.84 13.8608 20.5 14.2708 20.5H21.3108C21.7308 20.5 22.0608 20.84 22.0608 21.25C22.0608 21.66 21.7308 22 21.3108 22Z" fill="currentColor"/>
<path d="M13.9208 16.6899C14.3108 17.0799 14.3108 17.7099 13.9208 18.1099L10.9408 21.0899C9.83076 22.1999 8.05076 22.2599 6.87076 21.2699C6.80076 21.2099 6.74076 21.1499 6.68076 21.0899L3.16076 17.5699C3.09076 17.4999 3.03076 17.4299 2.97076 17.3599C1.99076 16.1799 2.06076 14.4199 3.16076 13.3199L6.14076 10.3399C6.53076 9.94986 7.16076 9.94986 7.55076 10.3399L13.9208 16.6899Z" fill="currentColor"/>
<path d="M21.4009 10.6399L16.4009 15.6399C16.0109 16.0299 15.3809 16.0299 14.9909 15.6399L8.62087 9.28994C8.23087 8.89994 8.23087 8.26994 8.62087 7.86994L13.6209 2.87994C14.7909 1.70994 16.7109 1.70994 17.8809 2.87994L21.4009 6.38994C22.5709 7.55994 22.5709 9.46994 21.4009 10.6399Z" fill="currentColor"/>
</svg>

<svg xmlns="http://www.w3.org/2000/svg" width="24" height="24" viewBox="0 0 24 24" fill="none"><path d="M21.31 22h-7.04a.749.749 0 1 1 0-1.5h7.04a.749.749 0 1 1 0 1.5zM13.92 16.69c.39.39.39 1.02 0 1.42l-2.98 2.98a3.027 3.027 0 0 1-4.07.18c-.07-.06-.13-.12-.19-.18l-3.52-3.52c-.07-.07-.13-.14-.19-.21a3.01 3.01 0 0 1 .19-4.04l2.98-2.98a.996.996 0 0 1 1.41 0l6.37 6.35zM21.4 10.64l-5 5a.996.996 0 0 1-1.41 0L8.62 9.29c-.39-.39-.39-1.02 0-1.42l5-4.99a3.024 3.024 0 0 1 4.26 0l3.52 3.51a3.012 3.012 0 0 1 0 4.25z" fill="currentColor"/></svg>
